X:1
T:Lovest Thou Me
T:B minor                William Walker, 1846
T:Transcribed from Southern and Western Pocket Harmonist , 1846; Counter by B. C. Johnston, 2018.
T:Verses: William Cowper, 1779 Chorus: Anonymous            77. 77. (Chorus 11 9.)            
%%score [ 1 2 3 4 ]
L:1/8
Q:1/4=100
M:6/4
K:D
V:1 treble nm="Tr." snm="Tr."
V:2 treble nm="C." snm="C."
V:3 treble-8 nm="T." snm="T."
V:4 bass nm="B." snm="B."
V:1
"_Hark,  my  soul!  it      is          the   Lord;  ’Tis  thy  Savior, hear his word;\nJe  – sus speaks,  and  speaks   to    thee:  Say, poor sinner, lovest thou me?""_1.{" d4 B2 A4 A2 | %1
 B4 B2 B6 | d4 d2 A4 B2 | f4 e2"_}" f6 :: %4
"_Hark! hark! Tis the voice of my Savior and Lord; He calls unto me,  Poor sin –ner, come!" B6 B4 d f | %5
 e4 d d f4 B B | B6 B6 | B4 d d A4 B2 | f4 e2 f6 :| %9
V:2
"_I   delivered   thee  when  bound,  And when wounded healed thy wound;\nSought  thee wandering,  set  thee  right,  Turned  thy  darkness  into light.""_2.{" A4 B2 c4 cA | %1
 (E3 D) FA B6 | A4 A2 E4 E2 | F4 A2"_}" B6 :: %4
"_Hark! hark! Tis the voice of my Savior and Lord; He calls unto me,  Poor sin –ner, come!" B6 F4 B F | %5
 A4 F B A4 B F | E6 F6 | F4 F B A4 F2 | F4 A2 B6 :| %9
V:3
"_Can  a      wo–man’s  ten  –  der  care  Cease, towards the child she bare?\nYes,  she   may  for – get   –   ful     be,    Yet    will   I   re–mem–ber thee.""_3.{" d4 dB c4 cA | %1
 (B3 c) BA F6 | A4 AF A4 Bc | d4 c2"_}" B6 :: %4
"_Hark! hark! Tis the voice of my Savior and Lord; He calls unto me,  Poor sin –ner, come!" B6 F4 F D | %5
 E4 F B F4 F D | B,6 B6 | F4 F D E4 F2 | d4 c2 B6 :| %9
V:4
"___________________________________________________________________________________\nSource of this tune unknown. It is a very different tune from Walker's \nLovest Thou Me\n from 1873.\n\nEdited by B. C. Johnston, 2018\n   1. Counter part written.\n   2. Lower notes in Treble, measures 5 and 9, moved to Counter.""_Mine  is     an   un – chan – ging     love;  Higher  than  the heights above;\nDee – per  than  the  depths  be – neath, Free and faithful, strong as death.\n\nThou  shalt  see  my  glo   –   ry     soon,   When the work of grace is done;\nPart –  ner    of   my  throne  shalt   be,       Say, poor sinner, lov’st thou me?\n\nLord,   it       is    my   chief   complaint,   That  my  love  is weak and faint;\nYet       I     love  thee   and    a   –  dore,    Oh  for  grace  to  love thee more!""_6.{""_5.{""_4.{" D,4 D,2 F,4 F,2 | %1
 E,4 F,2 B,,6 | D,4 D,F, A,4 E,2 | F,4 F,2"_}" B,,6 :: %4
"_Hark! hark! Tis the voice of my Savior and Lord; He calls unto me,  Poor sin –ner, come!" B,,6 B,,4 B,, F, | %5
 E,4 F, B,, F,4 F, F, | [B,,B,]6 B,,6 | F,4 F, B, A,4 F,2 | (D,3 E,) F,2 B,,6 :| %9

